Newaita-dark/actions/22/gnumeric-formulaguru.svg

<svg height="22" viewBox="0 0 22 22" width="22" xmlns="http://www.w3.org/2000/svg"><g fill="#e0e0e0"><path d="m3.636719 8.8125c0 .253906.203125.457031.457031.457031h.910156c.25 0 .453125-.203125.453125-.457031v-1.363281c0-2.015625 1.625-3.640625 3.640625-3.640625s3.636719 1.625 3.636719 3.640625v1.363281c0 .253906.203125.457031.453125.457031h.910156c.253906 0 .457032-.203125.457032-.457031v-1.363281c0-3.023438-2.433594-5.457031-5.457032-5.457031-3.023437 0-5.460937 2.433593-5.460937 5.457031zm0 0"/><path d="m5.003906 11.085938h4.546875c.25 0 .453125.203124.453125.457031v.910156c0 .25-.203125.453125-.453125.453125h-4.546875c-.253906 0-.457031-.203125-.457031-.453125v-.910156c0-.253907.203125-.457031.457031-.457031zm0 0"/><path d="m4.09375 8.359375h.910156c.25 0 .453125.175781.453125.398437v11.027344c0 .21875-.203125.398438-.453125.398438h-.910156c-.25 0-.457031-.179688-.457031-.398438v-11.027344c0-.222656.207031-.398437.457031-.398437zm0 0"/><path d="m14.082031 12.015625 4.09375 7.089844c.125.21875.050781.496093-.167969.621093l-.785156.457032c-.21875.125-.496094.050781-.621094-.167969l-4.09375-7.089844c-.125-.214843-.050781-.496093.164063-.621093l.789063-.453126c.21875-.125.496093-.050781.621093.164063zm0 0"/><path d="m18.175781 12.925781-4.09375 7.089844c-.125.21875-.402343.292969-.621093.167969l-.789063-.457032c-.214844-.125-.289063-.402343-.164063-.621093l4.09375-7.089844c.125-.214844.402344-.289063.621094-.164063l.785156.453126c.21875.125.292969.40625.167969.621093zm0 0"/></g></svg>

<?xml version="1.0" encoding="UTF-8"?>
<svg xmlns="http://www.w3.org/2000/svg" xmlns:xlink="http://www.w3.org/1999/xlink" width="22px" height="22px" viewBox="0 0 22 22" version="1.1">
<g id="surface1">
<path style=" stroke:none;fill-rule:nonzero;fill:rgb(87.843138%,87.843138%,87.843138%);fill-opacity:1;" d="M 3.636719 8.8125 C 3.636719 9.066406 3.839844 9.269531 4.09375 9.269531 L 5.003906 9.269531 C 5.253906 9.269531 5.457031 9.066406 5.457031 8.8125 L 5.457031 7.449219 C 5.457031 5.433594 7.082031 3.808594 9.097656 3.808594 C 11.113281 3.808594 12.734375 5.433594 12.734375 7.449219 L 12.734375 8.8125 C 12.734375 9.066406 12.9375 9.269531 13.1875 9.269531 L 14.097656 9.269531 C 14.351562 9.269531 14.554688 9.066406 14.554688 8.8125 L 14.554688 7.449219 C 14.554688 4.425781 12.121094 1.992188 9.097656 1.992188 C 6.074219 1.992188 3.636719 4.425781 3.636719 7.449219 Z M 3.636719 8.8125 "/>
<path style=" stroke:none;fill-rule:nonzero;fill:rgb(87.843138%,87.843138%,87.843138%);fill-opacity:1;" d="M 5.003906 11.085938 L 9.550781 11.085938 C 9.800781 11.085938 10.003906 11.289062 10.003906 11.542969 L 10.003906 12.453125 C 10.003906 12.703125 9.800781 12.90625 9.550781 12.90625 L 5.003906 12.90625 C 4.75 12.90625 4.546875 12.703125 4.546875 12.453125 L 4.546875 11.542969 C 4.546875 11.289062 4.75 11.085938 5.003906 11.085938 Z M 5.003906 11.085938 "/>
<path style=" stroke:none;fill-rule:nonzero;fill:rgb(87.843138%,87.843138%,87.843138%);fill-opacity:1;" d="M 4.09375 8.359375 L 5.003906 8.359375 C 5.253906 8.359375 5.457031 8.535156 5.457031 8.757812 L 5.457031 19.785156 C 5.457031 20.003906 5.253906 20.183594 5.003906 20.183594 L 4.09375 20.183594 C 3.84375 20.183594 3.636719 20.003906 3.636719 19.785156 L 3.636719 8.757812 C 3.636719 8.535156 3.84375 8.359375 4.09375 8.359375 Z M 4.09375 8.359375 "/>
<path style=" stroke:none;fill-rule:nonzero;fill:rgb(87.843138%,87.843138%,87.843138%);fill-opacity:1;" d="M 14.082031 12.015625 L 18.175781 19.105469 C 18.300781 19.324219 18.226562 19.601562 18.007812 19.726562 L 17.222656 20.183594 C 17.003906 20.308594 16.726562 20.234375 16.601562 20.015625 L 12.507812 12.925781 C 12.382812 12.710938 12.457031 12.429688 12.671875 12.304688 L 13.460938 11.851562 C 13.679688 11.726562 13.957031 11.800781 14.082031 12.015625 Z M 14.082031 12.015625 "/>
<path style=" stroke:none;fill-rule:nonzero;fill:rgb(87.843138%,87.843138%,87.843138%);fill-opacity:1;" d="M 18.175781 12.925781 L 14.082031 20.015625 C 13.957031 20.234375 13.679688 20.308594 13.460938 20.183594 L 12.671875 19.726562 C 12.457031 19.601562 12.382812 19.324219 12.507812 19.105469 L 16.601562 12.015625 C 16.726562 11.800781 17.003906 11.726562 17.222656 11.851562 L 18.007812 12.304688 C 18.226562 12.429688 18.300781 12.710938 18.175781 12.925781 Z M 18.175781 12.925781 "/>
</g>
</svg>
